X: 64
T:Liz Carrols
R:Reel
Z:Barney
M:4/4
L:1/8
K:A
||A3 B cBAB| ceef ecBA|F2 dF eFdF|fedf ecBA|
E3 B cBAB|ceef ecBA|a2 ga fedB|BAGB A2 cB|
A3 B cBAB|ceef ecBA|Fd (3ddd eFdF|fedf ecBA|
E3 B cBAB|ceef ecBA|a2 ga fedB|BAGB A2 ce||
|:a2 ga baga| f2 fe fgaf| e2 ce aecA|B2 BA Bcde|
a2 ga baga|f2 fe fgaf| e2 ce aecA|1 BA GB A2 ce:|2 BA GB A2 cB||
